src/img/logo.svg

<svg class="logo" width="180" height="50" viewBox="0 0 180 50" fill="none" xmlns="http://www.w3.org/2000/svg" role="img" aria-label="logo">
<path d="M67.9099 15.3629V9.81015H74.0252V15.3629H67.9099ZM67.9099 40.91V17.8439H74.0252V40.91H67.9099ZM90.5653 40.91H78.751V9.81015H90.2503C96.2531 9.81015 100.472 12.6512 100.472 17.9395C100.472 21.6245 98.4753 23.5654 96.2531 24.7356C99.5386 26.0689 101.806 28.0717 101.806 32.1561V32.3361C101.806 37.9789 97.2714 40.91 90.5653 40.91ZM89.7664 15.4923H85.0126V22.5584H89.4514C92.2981 22.5584 94.1209 21.4332 94.1209 19.0028C94.1209 16.6512 92.5175 15.4923 89.7664 15.4923ZM90.5653 27.8692H85.0126V35.1828H90.7397C93.6314 35.1828 95.4092 33.9845 95.4092 31.5823C95.4092 29.18 93.8058 27.8917 90.5653 27.8917V27.8692ZM105.57 40.8875V9.81015H111.685V40.91L105.57 40.8875ZM126.093 41.3601C119.848 41.3601 115.235 36.5387 115.235 29.6414V29.1688C115.235 22.3221 119.887 17.4107 126.177 17.4107C132.467 17.4107 137.035 22.2321 137.035 29.1294V29.602C137.035 36.4712 132.382 41.3826 126.093 41.3826V41.3601ZM130.982 29.1913C130.982 25.3994 129.046 22.7328 126.115 22.7328C123.1 22.7328 121.288 25.3601 121.288 29.1069V29.6245C121.288 33.3713 123.269 36.083 126.2 36.083C129.131 36.083 130.982 33.4557 130.982 29.7089V29.1913ZM149.322 47.5035C146.345 47.5272 143.401 46.8792 140.709 45.6076L142.233 40.7131C144.308 41.838 146.624 42.444 148.984 42.4796C152.821 42.4796 154.717 40.7131 154.717 37.0113V35.5429C153.125 37.6132 151.342 39.166 148.214 39.166C143.6 39.166 139.555 35.5879 139.555 28.1786C139.555 20.8987 143.645 17.3657 148.214 17.3657C151.359 17.3657 153.164 18.9578 154.633 20.7412V17.8158H160.748V36.6399C160.759 44.443 156.793 47.5035 149.299 47.5035H149.322ZM150.183 22.6428C147.6 22.6428 145.682 24.7975 145.682 28.3305C145.682 31.8636 147.578 33.9283 150.183 33.9283C152.787 33.9283 154.751 31.7792 154.751 28.3305C154.728 24.7975 152.748 22.6428 150.16 22.6428H150.183ZM171.949 41.3432C168.945 41.3196 166.023 40.3556 163.595 38.5865L165.575 34.0577C167.825 35.6104 170.076 36.4318 171.949 36.4318C173.586 36.4318 174.453 35.7398 174.453 34.6203C174.453 33.3263 172.765 32.8087 170.312 31.6498C167.342 30.2715 164.326 28.5443 164.326 24.4543C164.326 20.0155 167.775 17.4726 172.202 17.4726C174.733 17.4998 177.209 18.2155 179.364 19.5429L177.598 24.1955C175.662 23.0703 173.721 22.384 172.169 22.384C170.706 22.384 169.918 23.031 169.918 24.0211C169.918 25.1857 171.555 25.7876 174.014 27.0816C177.159 28.7187 180 30.3108 180 34.1871C180.028 38.9297 176.495 41.3432 171.927 41.3432H171.949Z" fill="black"/>

<path class="logo-path-1" d="M21.7328 22.1027L0 18.2658L24.8045 0.246155L21.7328 22.1027Z"/>
<path class="logo-path-2" d="M19.066 30.3277L0.410583 21.2363L9.31634 48.6455L19.066 30.3277Z"/>
<path class="logo-path-3" d="M26.059 35.4079L12.2137 49.7538H39.9043L26.059 35.4079Z"/>
<path class="logo-path-4" d="M27.3193 0.246155L30.3854 22.1027L52.1182 18.2658L27.3193 0.246155Z"/>
<path class="logo-path-5" d="M33.0519 30.3277L42.8016 48.6455L51.7073 21.2363L33.0519 30.3277Z"/>

</svg>

<svg width="180" height="50" fill="none" xmlns="http://www.w3.org/2000/svg"><path d="M67.91 15.363V9.81h6.115v5.553H67.91Zm0 25.547V17.844h6.115V40.91H67.91Zm22.655 0H78.751V9.81h11.5c6.002 0 10.221 2.841 10.221 8.13 0 3.684-1.997 5.625-4.219 6.796 3.286 1.333 5.553 3.336 5.553 7.42v.18c0 5.643-4.535 8.574-11.24 8.574Zm-.799-25.418h-4.753v7.066h4.438c2.847 0 4.67-1.125 4.67-3.555 0-2.352-1.603-3.51-4.355-3.51Zm.8 12.377h-5.553v7.314h5.727c2.891 0 4.67-1.199 4.67-3.6 0-2.403-1.604-3.691-4.845-3.691v-.023Zm15.004 13.019V9.81h6.115v31.1l-6.115-.022Zm20.523.472c-6.245 0-10.858-4.821-10.858-11.719v-.472c0-6.847 4.652-11.758 10.942-11.758s10.858 4.821 10.858 11.718v.473c0 6.87-4.653 11.78-10.942 11.78v-.022Zm4.889-12.169c0-3.792-1.936-6.458-4.867-6.458-3.015 0-4.827 2.627-4.827 6.374v.518c0 3.746 1.981 6.458 4.912 6.458s4.782-2.627 4.782-6.374v-.518Zm18.34 18.313a19.797 19.797 0 0 1-8.613-1.896l1.524-4.895a14.627 14.627 0 0 0 6.751 1.767c3.837 0 5.733-1.767 5.733-5.469v-1.468c-1.592 2.07-3.375 3.623-6.503 3.623-4.614 0-8.659-3.578-8.659-10.987 0-7.28 4.09-10.813 8.659-10.813 3.145 0 4.95 1.592 6.419 3.375v-2.925h6.115V36.64c.011 7.803-3.955 10.864-11.449 10.864h.023Zm.861-24.861c-2.583 0-4.501 2.154-4.501 5.688 0 3.533 1.896 5.597 4.501 5.597 2.604 0 4.568-2.149 4.568-5.597-.023-3.534-2.003-5.688-4.591-5.688h.023Zm21.766 18.7a14.379 14.379 0 0 1-8.354-2.757l1.98-4.528c2.25 1.552 4.501 2.374 6.374 2.374 1.637 0 2.504-.692 2.504-1.812 0-1.294-1.688-1.811-4.141-2.97-2.97-1.378-5.986-3.106-5.986-7.196 0-4.439 3.449-6.981 7.876-6.981 2.531.027 5.007.742 7.162 2.07l-1.766 4.652c-1.936-1.125-3.877-1.811-5.429-1.811-1.463 0-2.251.647-2.251 1.637 0 1.165 1.637 1.767 4.096 3.06 3.145 1.638 5.986 3.23 5.986 7.106.028 4.743-3.505 7.156-8.073 7.156h.022Z" fill="#000"/><path d="M21.733 22.103 0 18.266 24.805.246l-3.072 21.857Z" fill="#FDC330"/><path d="M19.066 30.328.411 21.236l8.905 27.41 9.75-18.318Z" fill="#FB3B57"/><path d="M26.059 35.408 12.214 49.754h27.69L26.06 35.408Z" fill="#F14AFF"/><path d="m27.32.246 3.065 21.857 21.733-3.837L27.32.246Z" fill="#26D318"/><path d="m33.052 30.328 9.75 18.317 8.905-27.409-18.655 9.092Z" fill="#41AFF9"/></svg>
